X: 67
T: Icy Mountain
B: canberra pickers and fiddlers
B: old time tunes update
B: tunes
M:C|
L:1/8
Q: 1/4=100
K:Dmixolydian
V:1 
(3AB^c|d2AA A2AA|ABAG F2A2|!slide!d2AA A2AA|ABAG F2A2|
!slide!d2AA A2AA|ABAG F2A2|cBcd cBAG|FD F2D2:|
|:A2-|ABAG FGAB|cBcd cBAG|ABAG FGAB|AFAB d2|
ABAG FGAB|cBcd cBAG|ABAG F3E|D2 DD D2:||
% abcbook-tune_id 67a7d9ec3e07000db2bd3235
% abcbook-tune_composer_id 
% abcbook-link-0 https://www.youtube.com/watch?v=92D4sGrTz4k
% abcbook-link-title-0 Evie Ladin and Emily Mann: &quot;Icy Mountain&quot;
% abcbook-link-start-at-0 5
% abcbook-link-end-at-0 214
% abcbook-boost 0
% abcbook-difficulty 0
% abcbook-tags old time tunes
% abcbook-tablature 
% abcbook-transpose 
% abcbook-tuning AEAE
% abcbook-lastupdated 1739273414302
% abcbook-src-url 
% abcbook-soundfonts 
% abcbook-repeats 1


